flaticon/symbols/tartar.svg

<svg xmlns="http://www.w3.org/2000/svg" width="32" height="32" viewBox="0 0 24 24">
    <path d="M 23.644531 20.371094 L 22.207031 18.933594 C 21.730469 18.457031 20.957031 18.457031 20.484375 18.933594 C 20.257812 19.160156 20.125 19.484375 20.125 19.816406 C 20.125 19.898438 20.132812 19.976562 20.148438 20.054688 L 18.5 20.054688 L 18.5 9.203125 C 20.539062 8.652344 21.953125 6.816406 21.953125 4.691406 C 21.953125 2.515625 20.472656 0.644531 18.351562 0.144531 C 18 0.0625 17.632812 0.144531 17.34375 0.371094 C 17.046875 0.609375 16.875 0.960938 16.875 1.339844 C 16.875 1.898438 17.261719 2.386719 17.816406 2.523438 C 18.921875 2.792969 19.644531 3.855469 19.496094 4.988281 C 19.355469 6.09375 18.363281 6.929688 17.191406 6.929688 L 16.726562 6.929688 C 16.359375 6.929688 16.0625 7.226562 16.0625 7.59375 L 16.0625 20.054688 L 13.21875 20.054688 L 13.21875 3.964844 C 13.59375 4.03125 13.992188 3.917969 14.277344 3.632812 C 14.507812 3.402344 14.636719 3.101562 14.636719 2.777344 C 14.636719 2.453125 14.507812 2.148438 14.277344 1.921875 L 12.851562 0.5 C 12.378906 0.03125 11.609375 0.03125 11.136719 0.5 L 9.710938 1.921875 C 9.480469 2.148438 9.355469 2.453125 9.355469 2.777344 C 9.355469 3.097656 9.480469 3.402344 9.710938 3.632812 C 10 3.921875 10.40625 4.03125 10.78125 3.964844 L 10.78125 20.054688 L 7.9375 20.054688 L 7.9375 7.59375 C 7.9375 7.226562 7.640625 6.929688 7.273438 6.929688 L 6.808594 6.929688 C 5.636719 6.929688 4.644531 6.09375 4.503906 4.988281 C 4.355469 3.855469 5.078125 2.792969 6.183594 2.523438 C 6.738281 2.386719 7.125 1.898438 7.125 1.339844 C 7.125 0.960938 6.953125 0.609375 6.65625 0.371094 C 6.367188 0.144531 6 0.0625 5.648438 0.144531 C 3.527344 0.644531 2.046875 2.515625 2.046875 4.691406 C 2.046875 6.816406 3.460938 8.652344 5.5 9.203125 L 5.5 20.054688 L 3.851562 20.054688 C 3.867188 19.976562 3.875 19.898438 3.875 19.816406 C 3.875 19.484375 3.742188 19.160156 3.515625 18.933594 C 3.058594 18.472656 2.253906 18.472656 1.792969 18.933594 L 0.355469 20.371094 C 0.125 20.601562 0 20.90625 0 21.230469 C 0 21.558594 0.125 21.863281 0.355469 22.09375 L 1.792969 23.53125 C 2.253906 23.992188 3.058594 23.988281 3.515625 23.53125 C 3.746094 23.300781 3.875 23 3.875 22.691406 C 3.875 22.625 3.867188 22.558594 3.855469 22.496094 L 20.144531 22.496094 C 20.132812 22.558594 20.125 22.625 20.125 22.691406 C 20.125 23.003906 20.253906 23.300781 20.484375 23.53125 C 20.710938 23.761719 21.019531 23.886719 21.34375 23.886719 C 21.671875 23.886719 21.976562 23.761719 22.207031 23.53125 L 23.644531 22.09375 C 23.875 21.863281 24 21.558594 24 21.230469 C 24 20.90625 23.875 20.601562 23.644531 20.371094 Z M 23.070312 21.519531 L 21.632812 22.957031 C 21.480469 23.109375 21.210938 23.109375 21.058594 22.957031 C 20.980469 22.878906 20.9375 22.785156 20.9375 22.691406 C 20.9375 22.59375 20.980469 22.503906 21.058594 22.425781 L 21.800781 21.683594 L 2.195312 21.683594 L 2.941406 22.425781 C 3.101562 22.582031 3.101562 22.796875 2.941406 22.957031 C 2.789062 23.109375 2.519531 23.109375 2.367188 22.957031 L 0.929688 21.519531 C 0.855469 21.441406 0.8125 21.339844 0.8125 21.230469 C 0.8125 21.121094 0.855469 21.019531 0.929688 20.945312 L 2.367188 19.507812 C 2.519531 19.355469 2.789062 19.355469 2.941406 19.507812 C 3.019531 19.582031 3.0625 19.695312 3.0625 19.816406 C 3.0625 19.9375 3.019531 20.050781 2.941406 20.125 L 2.199219 20.867188 L 6.3125 20.867188 L 6.3125 9.085938 C 6.3125 8.78125 6.101562 8.515625 5.800781 8.441406 C 4.070312 8.019531 2.859375 6.476562 2.859375 4.691406 C 2.859375 2.890625 4.082031 1.347656 5.835938 0.933594 C 5.984375 0.898438 6.097656 0.964844 6.152344 1.007812 C 6.253906 1.089844 6.3125 1.210938 6.3125 1.339844 C 6.3125 1.523438 6.179688 1.6875 5.992188 1.734375 C 4.484375 2.105469 3.5 3.546875 3.699219 5.09375 C 3.890625 6.601562 5.230469 7.742188 6.8125 7.742188 L 7.125 7.742188 L 7.125 20.871094 L 11.59375 20.871094 L 11.59375 2.3125 L 10.851562 3.054688 C 10.695312 3.210938 10.441406 3.210938 10.285156 3.054688 C 10.207031 2.980469 10.167969 2.882812 10.167969 2.777344 C 10.167969 2.671875 10.207031 2.570312 10.285156 2.496094 L 11.710938 1.078125 C 11.867188 0.921875 12.121094 0.921875 12.28125 1.078125 L 13.707031 2.496094 C 13.78125 2.570312 13.824219 2.671875 13.824219 2.777344 C 13.824219 2.882812 13.78125 2.980469 13.707031 3.054688 C 13.550781 3.210938 13.304688 3.210938 13.148438 3.054688 L 12.40625 2.320312 L 12.40625 20.867188 L 16.875 20.867188 L 16.875 7.742188 L 17.191406 7.742188 C 18.769531 7.742188 20.109375 6.601562 20.304688 5.09375 C 20.503906 3.546875 19.515625 2.105469 18.007812 1.734375 C 17.820312 1.6875 17.6875 1.523438 17.6875 1.335938 C 17.6875 1.210938 17.746094 1.089844 17.847656 1.007812 C 17.902344 0.964844 18.015625 0.898438 18.167969 0.933594 C 19.917969 1.347656 21.140625 2.890625 21.140625 4.691406 C 21.140625 6.476562 19.933594 8.019531 18.199219 8.441406 C 17.898438 8.515625 17.6875 8.78125 17.6875 9.085938 L 17.6875 20.867188 L 21.800781 20.867188 L 21.058594 20.125 C 20.898438 19.964844 20.898438 19.667969 21.058594 19.507812 C 21.214844 19.347656 21.472656 19.347656 21.632812 19.507812 L 23.070312 20.945312 C 23.144531 21.019531 23.1875 21.121094 23.1875 21.230469 C 23.1875 21.339844 23.144531 21.441406 23.070312 21.519531 Z M 23.070312 21.519531"/>
</svg>

<svg xmlns="http://www.w3.org/2000/svg" width="32" height="32" viewBox="0 0 24 24">
    <path d="M23.645 20.371l-1.438-1.437a1.217 1.217 0 0 0-1.723 0 1.26 1.26 0 0 0-.336 1.12H18.5V9.205a4.66 4.66 0 0 0 3.453-4.513A4.656 4.656 0 0 0 18.352.145c-.352-.082-.72 0-1.008.226-.297.238-.469.59-.469.969 0 .558.387 1.047.941 1.183a2.234 2.234 0 0 1 1.68 2.465c-.14 1.106-1.133 1.942-2.305 1.942h-.464a.664.664 0 0 0-.665.664v12.46H13.22V3.965a1.2 1.2 0 0 0 1.058-.331 1.2 1.2 0 0 0 0-1.711L12.852.5a1.221 1.221 0 0 0-1.715 0L9.71 1.922a1.19 1.19 0 0 0-.356.855c0 .32.125.625.356.856.289.289.695.398 1.07.332v16.09H7.937V7.594a.664.664 0 0 0-.664-.664H6.81c-1.172 0-2.164-.836-2.305-1.942a2.234 2.234 0 0 1 1.68-2.465c.554-.136.941-.625.941-1.183 0-.38-.172-.73-.469-.969A1.189 1.189 0 0 0 5.648.145 4.656 4.656 0 0 0 2.047 4.69 4.66 4.66 0 0 0 5.5 9.203v10.852H3.852a1.26 1.26 0 0 0-.336-1.121c-.457-.461-1.262-.461-1.723 0L.355 20.37c-.23.23-.355.535-.355.86 0 .328.125.632.355.863l1.438 1.437c.46.461 1.266.457 1.723 0 .23-.23.359-.531.359-.84 0-.066-.008-.132-.02-.195h16.29c-.012.063-.02.129-.02.195 0 .313.129.61.36.84.226.23.535.356.859.356.328 0 .633-.125.863-.356l1.438-1.437c.23-.23.355-.535.355-.864 0-.324-.125-.628-.355-.859zm-.575 1.149l-1.437 1.437a.418.418 0 0 1-.574 0 .38.38 0 0 1-.122-.266c0-.097.043-.187.122-.265l.742-.742H2.195l.746.742c.16.156.16.37 0 .531a.418.418 0 0 1-.574 0L.93 21.52a.418.418 0 0 1-.118-.29c0-.109.043-.21.118-.285l1.437-1.437a.418.418 0 0 1 .574 0 .424.424 0 0 1 .122.308.424.424 0 0 1-.122.309l-.742.742h4.114V9.086c0-.305-.211-.57-.512-.645a3.85 3.85 0 0 1-2.942-3.75c0-1.8 1.223-3.343 2.977-3.757a.37.37 0 0 1 .316.074c.102.082.16.203.16.332a.415.415 0 0 1-.32.394A3.049 3.049 0 0 0 3.7 5.094c.192 1.508 1.531 2.648 3.114 2.648h.312v13.13h4.469V2.311l-.742.743a.4.4 0 0 1-.567 0 .375.375 0 0 1-.117-.278c0-.105.039-.207.117-.28l1.426-1.419a.406.406 0 0 1 .57 0l1.426 1.418a.39.39 0 0 1 0 .559.391.391 0 0 1-.559 0l-.742-.735v18.547h4.469V7.742h.316c1.579 0 2.918-1.14 3.114-2.648a3.052 3.052 0 0 0-2.297-3.36.416.416 0 0 1-.32-.398c0-.125.058-.246.16-.328a.375.375 0 0 1 .32-.074 3.846 3.846 0 0 1 2.973 3.757 3.846 3.846 0 0 1-2.942 3.75.667.667 0 0 0-.512.645v11.781h4.114l-.742-.742a.456.456 0 0 1 0-.617.403.403 0 0 1 .574 0l1.437 1.437a.402.402 0 0 1 .117.285c0 .11-.042.211-.117.29zm0 0"/>
</svg>
